X:101
T: Der Baer
N: A0460
O: Europa, Mitteleuropa, Deutschland
N: Forster II 1540 No. 75.
R: Romanze, Ballade, Lied
M: 3/2
L: 1/2
K: F
F | FFG | A2F | AAB | c2
c | ccc | ccB | AFG | F2
c | ccc | ccB | AFG | F2

@@@ Tune index: 414
